src/static/logos/suse.svg

<?xml version="1.0" encoding="UTF-8"?>
<svg width="512px" height="238px" viewBox="0 0 512 238" version="1.1" xmlns="http://www.w3.org/2000/svg" xmlns:xlink="http://www.w3.org/1999/xlink" preserveAspectRatio="xMidYMid">
    <g>
				<path d="M503.297609,218.598545 C507.717272,218.597661 511.325129,222.133361 511.413522,226.552141 C511.412612,230.923458 507.884153,234.474771 503.512932,234.503902 C499.141712,234.533034 495.566233,231.029065 495.507061,226.658148 C495.447888,222.287231 498.927201,218.687756 503.297609,218.598545 Z M503.369597,220.194879 C499.865551,220.185074 497.01419,223.012373 496.994144,226.516377 C496.975334,229.87438 499.563674,232.640381 502.863339,232.891299 L503.286773,232.909606 L503.779074,232.897883 C505.128345,232.812459 506.41547,232.296909 507.450625,231.427264 L507.826627,231.084697 C509.038123,229.888472 509.716705,228.254675 509.709303,226.552141 C509.709053,223.048081 506.873643,220.204787 503.369597,220.194879 Z M500.321774,222.602396 L503.730457,222.602396 C505.447424,222.602396 506.575235,223.427213 506.717979,224.812906 L506.733345,225.118329 C506.824732,226.125059 506.264274,227.065067 505.363305,227.473904 L505.08311,227.580156 L506.94977,230.285461 L504.974897,230.285461 L503.324662,227.823634 L501.999062,227.823634 L501.999062,230.204302 L500.321774,230.204302 L500.321774,222.602396 L503.730457,222.602396 L500.321774,222.602396 Z M503.676351,224.090313 L501.999062,224.090313 L501.999062,226.335716 L503.703404,226.335716 L503.703404,226.28161 C504.569102,226.28161 505.029003,225.984027 505.029003,225.226541 C505.029003,224.553221 504.601499,224.179154 503.936491,224.104341 L503.676351,224.090313 Z" fill="#0D2C40"></path>
				<path d="M215.12858,128.160218 L215.12858,191.383183 C214.834803,200.114085 219.325034,208.310487 226.84105,212.762955 C234.357066,217.215422 243.702823,217.215422 251.218839,212.762955 C258.49998,208.449627 262.941492,200.622704 262.944889,192.200041 L262.931309,191.383183 L262.931309,128.160218 L285.95345,128.160218 L285.95345,189.949371 C286.362456,206.982134 277.509418,222.899046 262.823007,231.535689 C248.136596,240.172332 229.923293,240.172332 215.236882,231.535689 C200.83844,223.068392 192.046854,207.603527 192.092856,190.949965 L192.106439,189.949371 L192.106439,128.160218 L215.12858,128.160218 Z M119.926275,128.196971 L120.875773,128.214324 L180.311312,128.214324 L180.311312,150.235502 L120.794614,150.235502 C116.312319,150.235502 112.678701,153.869121 112.678701,158.351416 C112.678701,163.255746 115.647013,166.323748 121.510868,167.434136 L122.174319,167.549451 L158.804142,172.96006 C177.957697,175.935895 186.290035,190.355167 186.290035,204.287485 C186.200224,212.555967 182.779263,220.438733 176.801327,226.151888 C171.053312,231.645307 163.408454,234.686268 155.482163,234.659217 L154.529761,234.641001 L93.2816681,234.641001 L93.2816681,232.666129 C93.2816681,219.712793 102.152319,212.984475 110.776023,212.481176 L111.326049,212.457504 L154.61092,212.457504 C159.093215,212.457504 162.726833,208.823886 162.726833,204.341591 C162.726833,199.411174 159.783676,196.342241 153.897361,195.231819 L153.231214,195.116503 L116.601392,189.705894 C97.4748899,186.757112 89.1154992,172.33784 89.1154992,158.432575 C89.2487257,150.190123 92.6877442,142.346754 98.6599773,136.664485 C104.402509,131.200764 112.024156,128.175607 119.926275,128.196971 L119.926275,128.196971 Z M323.526946,128.196049 L324.476985,128.214324 L383.858418,128.214324 L383.858418,150.235502 L324.34172,150.235502 C319.859425,150.235502 316.225807,153.869121 316.225807,158.351416 C316.225807,163.255746 319.194119,166.323748 325.057974,167.434136 L325.721425,167.549451 L362.351247,172.96006 C381.558909,175.935895 389.9183,190.355167 389.9183,204.287485 C389.821258,212.558419 386.394282,220.441053 380.412084,226.153415 C374.659971,231.646071 367.012418,234.686249 359.083669,234.659211 L358.130973,234.641001 L298.884805,234.641001 L298.884805,212.457504 L358.212132,212.457504 C362.694427,212.457504 366.328045,208.823886 366.328045,204.341591 C366.328045,199.411174 363.359732,196.342241 357.471621,195.231819 L356.805373,195.116503 L320.202604,189.705894 C301.049049,186.757112 292.689658,172.33784 292.689658,158.432575 C292.822716,150.185269 296.265455,142.337632 302.24362,136.65456 C307.991855,131.190067 315.620227,128.167938 323.526946,128.196049 L323.526946,128.196049 Z M426.787896,128.142892 L427.738456,128.160218 L492.043542,128.160218 L492.043542,130.108037 C492.043542,143.034884 483.146954,149.788587 474.522169,150.292956 L473.972109,150.316661 L427.657297,150.316661 C423.335083,150.316661 419.80201,153.69537 419.555161,157.955703 L419.541383,158.432575 L419.541383,178.587093 C422.039298,174.451349 426.448861,171.871656 431.247934,171.697347 L431.904625,171.688567 L480.140203,171.688567 C477.007059,183.929067 467.150344,194.579886 450.084079,194.970163 L449.110361,194.981238 L429.037002,194.981238 C426.508669,194.784693 424.017568,195.682664 422.196139,197.447173 C420.51482,199.075951 419.553371,201.298484 419.5068,203.623281 L419.51433,204.206326 C419.51433,208.528539 422.893039,212.061613 427.153372,212.308462 L427.630244,212.322239 L473.945055,212.322239 C482.580613,212.587134 491.631171,219.051109 492.00453,231.714164 L492.016489,232.530863 L492.016489,234.505736 L427.765509,234.505736 C419.522029,234.789984 411.510307,231.748572 405.532143,226.0655 C399.783908,220.601008 396.379816,213.135253 396.008178,205.237223 L395.978182,204.287485 L395.978182,158.432575 C396.097035,150.180667 399.529764,142.323316 405.503604,136.629341 C411.24768,131.154365 418.876979,128.121984 426.787896,128.142892 L426.787896,128.142892 Z" fill="#0D2C40"></path>
				<path d="M48.5359327,27.6311052 L49.8885849,26.7924609 C94.0674087,-0.402461705 125.994156,-0.573650697 149.681491,0.196572113 L152.933631,0.307530416 C181.258168,1.30849306 211.449366,11.047589 215.588482,12.4543473 L215.7508,3.06694094 C215.735291,2.94690841 215.782592,2.82733451 215.876018,2.75039465 C215.938303,2.69910141 216.015254,2.67156171 216.093657,2.67023092 L217.994064,2.94191561 C226.326391,4.20083263 260.57137,9.97460205 275.916771,18.9200249 C277.359802,19.8155815 278.672929,20.902901 279.820625,22.1511927 L280.380523,22.7886103 C284.871328,27.4146809 290.227831,45.7025389 291.796908,51.1131478 C292.17565,52.4658 290.579521,53.5208687 290.146672,53.8184522 L288.577511,54.9041554 C284.003334,58.001692 275.479284,63.0280814 264.960288,62.0696307 C254.13907,61.1227742 240.017381,54.9546801 223.136281,43.8358788 L228.005829,55.3604757 L228.249306,55.6310062 L230.578558,56.7952072 C237.353555,60.1301913 255.970315,68.851583 265.934197,68.6435205 C273.768607,68.1221277 281.388916,65.8963486 288.264792,62.1283313 L289.596437,61.3797544 C290.041909,61.1550349 291.48715,60.5560129 290.958263,62.5565855 L290.225401,65.345374 C290.119936,65.7313026 290.014894,66.0960959 289.914502,66.4076287 L289.767929,66.8309665 L289.443293,67.6696109 C289.128256,68.8301516 288.523125,69.8914575 287.684845,70.753658 C283.990531,73.4866156 279.916559,75.6648692 275.592134,77.2193356 C264.303207,81.7602518 252.209309,83.9599791 240.044434,83.6850132 C235.736236,83.5903275 231.531602,83.1642421 227.720504,82.7329785 L223.999863,82.3154435 C212.226473,81.0370712 203.84746,80.7091783 202.007853,91.7468204 C200.726441,99.4091443 204.57678,108.461844 210.162141,116.681162 L210.745987,117.528372 L188.29196,117.528372 L187.683189,116.420958 C180.678407,103.369819 176.851528,85.9304159 151.391607,85.9304159 C128.07938,85.9304159 128.883184,108.294428 131.449872,116.915456 L131.642885,117.528372 L110.433298,117.528372 C101.695165,85.7139915 78.4565998,72.0251511 63.1175236,69.3198466 L62.0632597,69.1476422 C51.0839491,67.4594846 32.3251473,67.8611293 22.2403735,86.9043255 C17.9527094,95.963193 18.2959732,106.533654 23.1623369,115.295254 C28.0287006,124.056855 36.8210509,129.934529 46.7774848,131.081947 C56.9764825,132.191122 64.6324941,129.810454 68.9609812,124.237527 C73.2929532,118.64269 74.0890849,111.079439 71.0170125,104.705229 C68.393156,98.5095585 62.5001991,94.322733 55.7861486,93.8840109 C51.8014826,93.2327059 47.7691457,94.7345457 45.1813552,97.8337554 C44.5569613,98.8222132 44.1660594,99.9370987 44.0348585,101.093828 L43.9910212,101.675288 L44.0027897,102.113449 C44.1866742,105.157439 46.4807631,107.69053 49.5368953,108.140965 C50.4274393,108.123595 51.3141014,108.027311 52.1865133,107.853547 L53.0537911,107.65401 L53.9465415,107.356427 L54.5687616,107.167056 L55.0016103,107.167056 C58.0519095,106.551776 61.109858,108.187148 62.2916613,111.06573 C63.4112644,113.792808 62.5487445,116.909164 60.2418664,118.67983 L59.8441052,118.962183 L59.6547339,118.962183 L59.3571504,119.151554 C58.513879,119.68325 57.6043015,120.101656 56.651846,120.395994 C54.2693917,121.181696 51.7749861,121.574587 49.2663649,121.559275 C38.6244683,121.169701 30.1671683,112.486078 30.0587034,101.837606 C30.0496574,94.4815713 33.8195427,87.6365221 40.0412767,83.7120662 C49.7123319,78.0114766 61.7144039,78.1253683 71.2557177,83.9443771 L72.0450282,84.4424984 C84.9476469,92.5343699 90.9032629,108.213441 86.6266192,122.830768 C80.9995859,140.090611 65.5252445,149.369805 45.0190369,147.476092 C30.5662265,146.236349 17.3798329,138.733746 8.9302757,126.942831 C5.41642438,121.935221 2.83226794,116.336216 1.30131719,110.413421 C-1.06507473,99.417755 -0.191117631,87.9717363 3.81725032,77.462813 C11.484329,58.4273072 26.0241386,41.9238602 47.0579273,28.5584749 L49.8885849,26.7924609 L48.5359327,27.6311052 Z M273.81546,25.3818937 C269.003958,20.2294794 261.561603,18.4844771 254.961309,20.9611774 C248.361014,23.4378778 243.903782,29.6480917 243.669542,36.6938751 C243.380268,46.286109 250.879909,54.3171252 260.469482,54.6841496 C267.514799,54.9320311 274.015138,50.9096856 276.937172,44.4941068 C279.859205,38.078528 278.626963,30.534308 273.81546,25.3818937 Z M260.92726,24.9195255 L261.497498,24.9258008 C265.846803,25.0707775 269.788382,27.5250681 271.837481,31.3641651 C273.88658,35.203262 273.731891,39.8439151 271.431685,43.5380352 C269.131479,47.2321553 265.035212,49.4185177 260.685907,49.2735407 C257.451525,49.153949 254.397906,47.7513088 252.199851,45.3755818 C250.001795,42.9998548 248.840265,39.846628 248.971938,36.612716 C249.200216,30.119164 254.496773,24.9977909 260.92726,24.9195255 L260.92726,24.9195255 Z M263.391211,31.0938949 L263.499423,31.120948 C260.550641,31.120948 257.980602,32.7170776 257.980602,34.6919498 C257.980602,36.6668221 260.388323,38.2900047 263.391211,38.2900047 C266.394099,38.2900047 268.80182,36.6938751 268.80182,34.6919498 C268.80182,32.795389 266.616593,31.2630326 263.856307,31.1069856 L263.391211,31.0938949 Z" fill="#02D35F"></path>
		</g>
</svg>

<svg width="512" height="238" xmlns="http://www.w3.org/2000/svg" preserveAspectRatio="xMidYMid"><path d="M503.298 218.599a8.116 8.116 0 018.116 7.953 7.954 7.954 0 11-8.116-7.953zm.072 1.596a6.358 6.358 0 00-.507 12.696l.424.019.492-.012a6.33 6.33 0 003.672-1.47l.376-.343a6.331 6.331 0 001.882-4.533 6.358 6.358 0 00-6.34-6.357zm-3.048 2.407h3.408c1.717 0 2.845.825 2.988 2.21l.015.306a2.354 2.354 0 01-1.37 2.356l-.28.106 1.867 2.705h-1.975l-1.65-2.461h-1.326v2.38h-1.677v-7.602h3.408-3.408zm3.354 1.488H502v2.246h1.704v-.054c.866 0 1.326-.298 1.326-1.055 0-.674-.428-1.048-1.093-1.123l-.26-.014zm-288.547-95.93v63.223a23.915 23.915 0 1047.816.817l-.014-.817V128.16h23.022v61.79a46.937 46.937 0 11-93.86 1l.013-1v-61.79h23.023zm-95.203.037l.95.017h59.435v22.022h-59.516a8.116 8.116 0 00-8.116 8.115c0 4.905 2.968 7.973 8.832 9.083l.663.115 36.63 5.411c19.154 2.976 27.486 17.395 27.486 31.327a30.705 30.705 0 01-30.808 30.372l-.952-.018H93.282v-1.975c0-12.953 8.87-19.682 17.494-20.185l.55-.023h43.285a8.116 8.116 0 008.116-8.116c0-4.93-2.943-8-8.83-9.11l-.666-.115-36.63-5.411c-19.126-2.949-27.486-17.368-27.486-31.273a30.732 30.732 0 0130.811-30.236zm203.6-.001l.951.018h59.381v22.022h-59.516a8.116 8.116 0 00-8.116 8.115c0 4.905 2.968 7.973 8.832 9.083l.663.115 36.63 5.411c19.208 2.976 27.567 17.395 27.567 31.327a30.732 30.732 0 01-30.834 30.372l-.953-.018h-59.246v-22.183h59.327a8.116 8.116 0 008.116-8.116c0-4.93-2.968-8-8.856-9.11l-.667-.115-36.602-5.411c-19.154-2.949-27.513-17.368-27.513-31.273a30.732 30.732 0 0130.837-30.237zm103.262-.053l.95.017h64.306v1.948c0 12.927-8.897 19.68-17.522 20.185l-.55.024h-46.315a8.116 8.116 0 00-8.102 7.639l-.014.477v20.154a14.284 14.284 0 0111.707-6.89l.657-.008h48.235c-3.133 12.24-12.99 22.89-30.056 23.281l-.974.011h-20.073a8.846 8.846 0 00-9.53 8.642l.007.583a8.116 8.116 0 007.64 8.102l.476.014h46.315c8.636.265 17.686 6.73 18.06 19.392l.011.817v1.975h-64.25a30.732 30.732 0 01-31.758-29.269l-.03-.95v-45.854a30.732 30.732 0 0130.81-30.29z" fill="#0D2C40"/><path d="M48.536 27.631l1.353-.839C94.067-.402 125.994-.574 149.68.197l3.253.11c28.324 1.001 58.515 10.74 62.654 12.147l.163-9.387a.352.352 0 01.343-.397l1.9.272c8.332 1.259 42.577 7.033 57.923 15.978a18.694 18.694 0 013.904 3.231l.56.638c4.49 4.626 9.847 22.914 11.416 28.324.379 1.353-1.217 2.408-1.65 2.705l-1.57 1.086c-4.574 3.098-13.098 8.124-23.617 7.166-10.82-.947-24.943-7.115-41.824-18.234l4.87 11.524.243.271 2.33 1.164c6.775 3.335 25.391 12.057 35.355 11.849a53.917 53.917 0 0022.33-6.516l1.332-.748c.446-.225 1.891-.824 1.362 1.177l-.733 2.788c-.105.386-.21.751-.31 1.063l-.147.423-.325.839a7.088 7.088 0 01-1.758 3.084 47.153 47.153 0 01-12.093 6.465 89.816 89.816 0 01-35.548 6.466c-4.308-.095-8.512-.52-12.323-.952l-3.72-.418c-11.774-1.278-20.153-1.606-21.992 9.432-1.282 7.662 2.569 16.715 8.154 24.934l.584.847h-22.454l-.609-1.107c-7.005-13.051-10.831-30.49-36.291-30.49-23.313 0-22.509 22.363-19.942 30.984l.193.613h-21.21c-8.738-31.814-31.976-45.503-47.315-48.208l-1.055-.172c-10.98-1.689-29.738-1.287-39.823 17.756a31.084 31.084 0 0024.537 44.178c10.2 1.11 17.855-1.272 22.184-6.844a18.667 18.667 0 002.056-19.533 17.8 17.8 0 00-15.23-10.821 11.416 11.416 0 00-10.606 3.95 7.737 7.737 0 00-1.146 3.26l-.044.581.012.438a6.493 6.493 0 005.534 6.028c.89-.017 1.777-.114 2.65-.287l.867-.2.893-.298.622-.189h.433a6.493 6.493 0 015.24 11.513l-.398.282h-.19l-.297.19c-.843.531-1.753.95-2.705 1.244a23.13 23.13 0 01-7.386 1.163c-10.642-.39-19.099-9.073-19.207-19.721a21.399 21.399 0 019.982-18.126 30.354 30.354 0 0131.215.232l.789.498c12.903 8.092 18.858 23.771 14.582 38.389C81 140.09 65.525 149.37 45.019 147.476A49.615 49.615 0 018.93 126.943a50.995 50.995 0 01-7.629-16.53 58.137 58.137 0 012.516-32.95c7.667-19.036 22.207-35.54 43.24-48.905l2.832-1.766-1.353.84zm225.28-2.25a17.422 17.422 0 00-30.146 11.313c-.29 9.592 7.21 17.623 16.8 17.99a17.422 17.422 0 0013.345-29.302zm-12.889-.461l.57.006a12.18 12.18 0 11-.811 24.348 12.174 12.174 0 01-11.714-12.661c.228-6.494 5.525-11.615 11.955-11.693zm2.464 6.174l.108.027c-2.948 0-5.518 1.596-5.518 3.57 0 1.976 2.407 3.599 5.41 3.599s5.41-1.596 5.41-3.598c0-1.897-2.184-3.429-4.945-3.585l-.465-.013z" fill="#02D35F"/></svg>
